svg/movie_open_off.svg

<svg xmlns="http://www.w3.org/2000/svg" viewBox="0 0 24 24"><path d="M13.2 10H22v8.8zm8.4-3.9-.8-3.9-3.9.8 2.7 3.5zM11.8 8 9.1 4.5l-1.2.2 3.4 3.4zM2.4 1.7 1.1 3l2.6 2.6-.5.1C2.1 5.9 1.4 7 1.6 8l.4 2 5.1-1 1 1H2v10c0 1.1.9 2 2 2h16.1l.7.7 1.3-1.3zm14.3 5.4L14 3.5l-2 .4 2.8 3.5z"/></svg>

<?xml version="1.0" encoding="UTF-8"?><!DOCTYPE svg PUBLIC "-//W3C//DTD SVG 1.1//EN" "http://www.w3.org/Graphics/SVG/1.1/DTD/svg11.dtd"><svg xmlns="http://www.w3.org/2000/svg" xmlns:xlink="http://www.w3.org/1999/xlink" version="1.1" id="mdi-movie-open-off" width="24" height="24" viewBox="0 0 24 24"><path d="M13.2 10H22V18.8L13.2 10M21.6 6.1L20.8 2.2L16.9 3L19.6 6.5L21.6 6.1M11.8 8L9.1 4.5L7.9 4.7L11.3 8.1L11.8 8M2.4 1.7L1.1 3L3.7 5.6L3.2 5.7C2.1 5.9 1.4 7 1.6 8L2 10L7.1 9L8.1 10H2V20C2 21.1 2.9 22 4 22H20.1L20.8 22.7L22.1 21.4L2.4 1.7M16.7 7.1L14 3.5L12 3.9L14.8 7.4L16.7 7.1Z" /></svg>
